src/pos-icons/sausage.svg

<svg height="24" viewBox="0 0 24 24" width="24" xmlns="http://www.w3.org/2000/svg"><path d="m3.5 3h6l-1.54 2.32c1.2.55 2.04 1.77 2.04 3.18a5.5 5.5 0 0 0 5.5 5.5c1.41 0 2.63.84 3.18 2.04l2.32-1.54v6l-2.32-1.54c-.55 1.2-1.77 2.04-3.18 2.04a12.5 12.5 0 0 1 -12.5-12.5c0-1.41.84-2.63 2.04-3.18z"/></svg>

<?xml version="1.0" encoding="UTF-8"?><!DOCTYPE svg PUBLIC "-//W3C//DTD SVG 1.1//EN" "http://www.w3.org/Graphics/SVG/1.1/DTD/svg11.dtd"><svg xmlns="http://www.w3.org/2000/svg" xmlns:xlink="http://www.w3.org/1999/xlink" version="1.1" id="mdi-sausage" width="24" height="24" viewBox="0 0 24 24"><path d="M3.5,3H9.5L7.96,5.32C9.16,5.87 10,7.09 10,8.5A5.5,5.5 0 0,0 15.5,14C16.91,14 18.13,14.84 18.68,16.04L21,14.5V20.5L18.68,18.96C18.13,20.16 16.91,21 15.5,21A12.5,12.5 0 0,1 3,8.5C3,7.09 3.84,5.87 5.04,5.32L3.5,3Z" /></svg>
